svg/fluentui-system-icons/ic_fluent_building_bank_16_filled.svg

<svg width="16" height="16" viewBox="0 0 16 16" fill="none" xmlns="http://www.w3.org/2000/svg">
<path d="M7.29198 1.71234C7.71018 1.39276 8.29058 1.39276 8.70877 1.71236L13.6713 5.50483C14.3034 5.98788 13.9636 6.99644 13.1698 7.00027H2.83066C2.03687 6.99644 1.69712 5.98786 2.32921 5.50482L7.29198 1.71234ZM8 5.25027C8.41421 5.25027 8.75 4.91449 8.75 4.50027C8.75 4.08606 8.41421 3.75027 8 3.75027C7.58579 3.75027 7.25 4.08606 7.25 4.50027C7.25 4.91449 7.58579 5.25027 8 5.25027ZM3.5 8.00027V11.0003H5V8.00027H3.5ZM6 8.00027V11.0003H7.5V8.00027H6ZM8.5 8.00027V11.0003H10V8.00027H8.5ZM11 8.00027V11.0003H12.5V8.00027H11ZM2 13.2503C2 12.5599 2.55964 12.0003 3.25 12.0003H12.75C13.4404 12.0003 14 12.5599 14 13.2503V13.5003C14 13.7764 13.7761 14.0003 13.5 14.0003H2.5C2.22386 14.0003 2 13.7764 2 13.5003V13.2503Z" fill="#212121"/>
</svg>

<svg xmlns="http://www.w3.org/2000/svg" width="16" height="16"><path d="M7.292 1.712c.418-.32.999-.32 1.417 0l4.962 3.793c.632.483.293 1.491-.501 1.495H2.83c-.793-.004-1.133-1.012-.5-1.495l4.962-3.793ZM8 5.25a.75.75 0 1 0 0-1.5.75.75 0 0 0 0 1.5ZM3.5 8v3H5V8H3.5ZM6 8v3h1.5V8H6Zm2.5 0v3H10V8H8.5ZM11 8v3h1.5V8H11Zm-9 5.25c0-.69.56-1.25 1.25-1.25h9.5c.69 0 1.25.56 1.25 1.25v.25a.5.5 0 0 1-.5.5h-11a.5.5 0 0 1-.5-.5v-.25Z"/></svg>
